X:1
T:Title
%%score { ( 1 2 ) | ( 3 4 ) }
L:1/8
Q:1/4=100
M:4/4
K:A
V:1 treble nm="Grand Piano"
V:2 treble 
V:3 treble 
V:4 treble 
V:1
 A2 A2 z4 | [^DFB]2 [DFB]2 [EB]2 [B,GB]2 | c3 B A2 A2 | F2 A2 B4 | [EAc]2 [EAc]2 [EGB]2 [EGB]2 | %5
w: G.~J.~Geer *|||||
 [CFA]2 [CFA]2 G2 G2 | e3 d c2 z A, |[M:8/4] c2 B2 [CA]4 z8 |[M:4/4] [DA]8 | [CA]8 |] %10
w: |||||
V:2
 z D z F [EA]2 [EA]2 | x8 | x8 | x8 | x8 | x8 | z4 z2 [Fd]2 |[M:8/4] x16 |[M:4/4] x8 | x8 |] %10
V:3
 .C2 .[CE]2 z4 | B,CB,A, G,2 E,2 | [A,E]3 [G,B,E] [F,CF]2 [F,CF]2 | [D,D]2 [F,A,^D]2 [E,G,E]4 | %4
 A,,B,,C,D, E,2 E,2 | F,G,A,B,[K:treble] [CE]2 [CE]2 | [CEA]3 [B,EG] [A,EA]2[K:bass] .[D,B,]2 | %7
[M:8/4] [E,A,E]2 [E,G,D]2 [A,,A,]4 z8 |[M:4/4] [D,F,]8 | [A,,E,]8 |] %10
V:4
 A,-[A,B,]A,-[A,D] C2 C2 | x8 | x8 | x8 | x8 | x4[K:treble] x4 | x6[K:bass] x2 |[M:8/4] x16 | %8
[M:4/4] x8 | x8 |] %10

